X: 6
T:Cairo (Kay-roe)
O:Kentucky
M:2/4
L:1/4
Q:300
K:D
|"D"a2 a>g| f a z g| f d d/f/e/d/|"A7"c A A2| "D"a2 a>g| f a z g|"A7" f
d e c |"D" d4|
"D"a2 a>g| f a z g| f d d/f/e/d/|"A7"c A A2| "D"a2 a>g| f a z g|"A7" f d
 e c |"D" d2>A|:
"D"d d "A7"e e|"D"f f "G"g2 |"D"f d d2|"A7"c A2 A|
"D"d d "A7"e e|"D"f f "G"g2 |"D" f d"A7" e c|[1 "D"d2>A:| [2 "D"d4|

